X: 6
T: Shove that Pig's Foot a Little Farther in the Fire - G
L: 1/8
M: C|
S: Bruce Molsky
S: aikuntz:aol.com tradtunes 2001-04-16
Z: AK/Fiddler's Companion
K: G
z(B |: B)cBA G2 EF | GAGE D3 D | E(F G2) {A}B3c | B2 A6 z(B | B)cBA G2 EF |
|: B d2 e d3 d | e(dB)c dBGA |B2 d2 [d3g3]g | e2 d4 BA |

